X:1
T:Nun lasst uns mit den Engelein
T:Nach Johann Stobäus, 1644  -  Satz: Johann Georg Herzog
T:Peter von Hagen
T:Nun lasst uns mit den Engelein
T:CPDL - Creative Commons Attribution Non Commercial 3.0
T:CPDL - Creative Commons Attribution Non Commercial 3.0
C:Johann Georg Herzog
Z:Peter von Hagen
Z:CPDL - Creative Commons Attribution Non Commercial 3.0
%%score [ ( 1 2 ) ( 3 4 ) ]
L:1/8
Q:1/4=90
M:4/4
K:Bb
V:1 treble nm="Sopran\nAlt"
V:2 treble 
V:3 bass nm="Tenor\nBass"
V:4 bass 
V:1
"^Fröhlich"!mf! B2 | B2 A2 B2 c2 | d3 c !breath!d2 e2 |!<(! d2 c2!<)! f2 d2 | (c2!>(! B4 A2)!>)! | %5
w: 1.~Nun|lasst uns mit den|En- ge- lein auch|un- ser Stimm' er-|he- * *|
w: 2.~Der|Fried- fürst brin- get|auch mit sich drei-|fa- chen Fried' auf|Er- * *|
w: 3.~Drauf|fol- get zwi- schen|Gott zu- gleich und|bei uns Men- schen|al- * *|
 !breath!B6 B2 | B2 A2 B2 c2 | d3 c !breath!d2 e2 |!<(! d2 c2!<)! f2 d2 | (c2!>(! B4 A2)!>)! | %10
w: ben, weil|Gott uns Men- schen|ins- ge- mein sein'n|lie- ben Sohn ge-|ge- * *|
w: den: mit|Gott den Frie- den|in- ner- lich, da-|durch wir fröh- lich|wer- * *|
w: len und|den En- geln im|Him- mel- reich ein|gro- ßes Wohl- ge-|fal- * *|
 B4 z2!mp! F2 | F2 G2 _A3 B | _A2 G2 !breath!F2 B2 |!<(! G3 =A!<)! B2 c2 | (c2 =B2) c4 | %15
w: ben. Ma-|rie, die Jung- frau,|hat ge- bor'n Je-|sum, den Schlan- gen-|tre- * ter,|
w: den; den|zeit- li- chen und|ew'- gen Fried' er|brü- der- lich uns|spen- * det.|
w: len; das|bringt zu- weg' der|hei- lig' Geist, der|un- ser Herz ent-|zün- * det|
 z2!mf! c2 c2 d2 | e3 f e2 d2 | !breath!c2 c2 B3 c | d2!<(! e2 (e2 d2)!<)! | e4 |: z2!f! e2 | %21
w: den Gott ver-|hei- ßen hat zu-|vor, ist al- ler|Welt Er- ret- *|ter.|Drum|
w: Bald kommt he-|ran viel grö- ßer'|Freud', als un- ser|Herz ge- den- *|ket;|dem|
w: und uns im|Her- ren al- ler-|meist mit Lie- bes-|treu' ver- bin- *|det;|den|
 c3 B A2 B2 | c4 !breath!F2 f2 | e3 d c2 B2 | (A2 B3!>(! A/[Q:1/4=80]"^rit."G/ A2)!>)! | %25
w: woll'n wir Gott, den|Her- ren, von|gan- zem Her- zen|eh- * * * *|
w: Frie- de- fürs- ten|e- ben die|ew'- ge Ehr' wir|ge- * * * *|
w: heil'- gen Geist mit|Na- men wir|e- wig prei- sen,|A- * * * *|
 !fermata!B6 :| %26
w: ren.|
w: ben.|
w: men.|
V:2
 F2 | F2 F2 D2 F2 | F3 F F2 G2 | F2 F2 F2 F2 | (E2 DE F4) | D6 F2 | F2 F2 D2 F2 | F3 F F2 G2 | %8
 F2 F2 F2 F2 | (E2 DE F4) | D4 x2 D2 | D3 =E F3 F | F2 E2 D2 F2 | F3 E D2 G2 | G4 E4 | %15
 x2 F2 F2 F2 | G3 F G2 F2 | F2 A2 B3 F | F2 G2 F4 | G4 |: x2 E2 | F3 G F2 F2 | E4 D2 F2 | %23
 G3 F F2 DE | F8 | !fermata!D6 :| %26
V:3
!mf! D2 | D2 C2 B,2 A,2 | B,3 C !breath!B,2 B,2 |!<(! B,2 A,2!<)! A,2 B,2 | (G,2!>(! B,2 C4)!>)! | %5
w: |||||
 !breath!B,6 D2 | D2 C2 B,2 A,2 | B,3 C !breath!B,2 B,2 |!<(! B,2 A,2!<)! A,2 B,2 | %9
w: ||||
 (G,2!>(! B,2 C4)!>)! | B,4 z2!mp! B,2 | B,2 B,2 C3 B, | B,2 B,2 !breath!B,2 B,2 | %13
w: |* (Ein'|zart' Jung- fräu- lein)||
!<(! B,3 C!<)! B,2 E2 | D4 C4 | z2!mf! A,2 A,2 B,2 | B,3 B, B,2 B,2 | !breath!A,2 F2 FE DC | %18
w: |||||
 B,2!<(! B,2 B,4!<)! | B,4 |: z2!f! C2 | A,3 B, C2 F,2 | (G,2 A,2) !breath!B,2 B,2 | %23
w: |||||
 B,3 B, A,2 B,2 | (C2 DB,!>(! C4)!>)! | !fermata!B,6 :| %26
w: |||
V:4
 B,,2 | B,,2 F,2 G,2 F,2 | B,,3 A,, B,,2 E,2 | B,2 F,2 D,2 B,,2 | (E,2 G,2 F,4) | B,,6 B,,2 | %6
 B,,2 F,2 G,2 F,2 | B,,3 A,, B,,2 E,2 | B,2 F,2 D,2 B,,2 | (E,2 G,2 F,4) | B,,4 x2 B,,2 | %11
 B,2 G,2 F,3 D, | E,2 E,2 B,,2 D,2 | E,3 C, G,2 E,F, | G,4 C,4 | x2 F,2 F,2 B,2 | E,3 D, E,2 B,,2 | %17
 F,2 F,2 G,3 A, | B,2 G,E, B,4 | E,4 |: x2 C,2 | F,3 F, F,2 D,2 | C,4 B,,2 D,2 | E,3 B,, F,2 G,2 | %24
 F,8 | !fermata!B,,6 :| %26

